X: 1239
T: The Jolly Journeyman
M:C|
L:1/8
R:Reel
B:O'Neill's 1239
Z:Transcribed by Trish O'Neil
K:G
G2(BG) ABcA | eBcA eBcA | G2(BG) ABcA | eBcA BGG2 :|
g2(fg) agfd | eBcA eBcA | g2(fg) agfd | eBcA (BG)G2 |
g2(fg) agfd | eBcA eBcA | G2(BG) ABcA | eBcA BGG2 |]


